svg/sword.svg

<svg xmlns="http://www.w3.org/2000/svg" viewBox="0 0 61 61" enable-background="new 0 0 61 61"><style type="text/css">.st0{fill:#333333;}</style><title>sword</title><desc>Created with Sketch.</desc><path class="st0" d="M60.9.6l-11.8.5-30.6 30.6-1.4-1.4c-.8-.8-2.1-.8-2.8 0l-2.8 2.8c-.8.8-.8 2 0 2.8l3.5 3.5-8.5 8.5c-.8-.8-2.1-.8-2.8 0l-2.1 2.1c-.8.8-.8 2.1 0 2.8l7 7.2c.8.8 2.1.8 2.8 0l2.1-2.1c.8-.8.8-2 0-2.8l8.5-8.5 3.5 3.5c.8.8 2.1.8 2.8 0l2.8-2.8c.8-.8.8-2 0-2.8l-1.3-1.5 30.6-30.6.5-11.8zm-47.3 44.5l2.8 2.8-1.5 1.5-2.9-2.8 1.6-1.5zm-3 2.9l2.8 2.8-2 2-2.8-2.8 2-2zm-.6 9.1l-5.7-5.7.7-.7 5.7 5.7-.7.7zm7.8-10.6l-2.8-2.8 2.1-2.1 2.8 2.8-2.1 2.1zm10.6-.7l-1.4 1.4-2.8-2.8-7.1-7.1-2.8-2.8 1.4-1.4.7.7 11.3 11.3.7.7zm29.1-34.7l-29.8 29.8-3.5-3.5-3.5-3.5 29.7-29.9 7.4-.3-.3 7.4zM40.4 19.7l-15.5 15.5c-.4.4-.4 1 0 1.4.4.4 1 .4 1.4 0l15.6-15.6c.4-.4.4-1 0-1.4-.5-.3-1.1-.3-1.5.1z"/></svg>

<?xml version="1.0" encoding="utf-8"?>
<!-- Generator: Adobe Illustrator 21.0.0, SVG Export Plug-In . SVG Version: 6.00 Build 0)  -->
<svg version="1.1" id="Layer_1" xmlns="http://www.w3.org/2000/svg" xmlns:xlink="http://www.w3.org/1999/xlink" x="0px" y="0px"
	 viewBox="0 0 61 61" style="enable-background:new 0 0 61 61;" xml:space="preserve">
<style type="text/css">
	.st0{fill:#333333;}
</style>
<title>sword</title>
<desc>Created with Sketch.</desc>
<g>
	<path class="st0" d="M60.9,0.6L49.1,1.1L18.5,31.7l-1.4-1.4c-0.8-0.8-2.1-0.8-2.8,0l-2.8,2.8c-0.8,0.8-0.8,2,0,2.8l3.5,3.5
		l-8.5,8.5c-0.8-0.8-2.1-0.8-2.8,0l-2.1,2.1c-0.8,0.8-0.8,2.1,0,2.8L8.6,60c0.8,0.8,2.1,0.8,2.8,0l2.1-2.1c0.8-0.8,0.8-2,0-2.8
		l8.5-8.5l3.5,3.5c0.8,0.8,2.1,0.8,2.8,0l2.8-2.8c0.8-0.8,0.8-2,0-2.8L29.8,43l30.6-30.6L60.9,0.6z M13.6,45.1l2.8,2.8l-1.5,1.5
		L12,46.6L13.6,45.1z M10.6,48l2.8,2.8l-2,2l-2.8-2.8L10.6,48z M10,57.1l-5.7-5.7l0.7-0.7l5.7,5.7L10,57.1z M17.8,46.5L15,43.7
		l2.1-2.1l2.8,2.8L17.8,46.5z M28.4,45.8L27,47.2l-2.8-2.8l0,0l-7.1-7.1l-2.8-2.8l1.4-1.4l0.7,0.7l11.3,11.3L28.4,45.8z M57.5,11.1
		L27.7,40.9l-3.5-3.5l-3.5-3.5L50.4,4l7.4-0.3L57.5,11.1z"/>
	<path class="st0" d="M40.4,19.7L24.9,35.2c-0.4,0.4-0.4,1,0,1.4c0.4,0.4,1,0.4,1.4,0l15.6-15.6c0.4-0.4,0.4-1,0-1.4
		C41.4,19.3,40.8,19.3,40.4,19.7z"/>
</g>
</svg>
